X:147
%%pagewidth 8.5in
%%vocalfont Baskerville10Pro 14
T:Down in the north country (Halliwell)
M:C
L:1/8
K:Eb
%%score 1 2
V:1 clef-treble
V:2 clef-bass octave=-1
V:1
E2|B2G2(AB)(cB)|(B4e4)|B2AB (cB)(AG)|
w:Down in the North* Coun-*try, As an-cient re-ports* do*
V:2
z2|[EGe]4[FAe]4|[GBe]8|[GBe]4[Ace]4|
V:1
F4B4|G2(FE)F2(ED)|(CD)E2A2B2&x6F2|G2e2AG(FE)&E4E2D2|E6E2&E6x2|
w:tell, There lies a* fa-mous* count--ry town, Some call it merry* Wake--field, And  
V:2
[Bd]8|e2dc d2cB&E8-|A2G2c2x2&E2E2F2D2|E2C2F2B,2|E2B,2E,2z2|
V:1
B2G2(AB)(cB)|(B4e4)|B2(AB) (cB)(AG)|F4B4|
w:in this coun-*try* town, A far-mer* there* did* dwell, Whose
V:2
[EGe]4[FAe]4|[GBe]8|[GBe]4[Ace]4|[Bd]8|
V:1
G2(FE)F2(ED)|(CD)E2A2B2&x6F2|G2(FE) (DE)(FD)&E2C2B,2A,2|[G,E]6||
w:daugh-ter* would to* mar-*ket go, Her trea-sure* for* to* sell.
V:2
e2dcd2cB&E8-|A2G2c2x2&E2E2F2D2|E2A,2B,2B,,2|E,6||

